X: 952
T: Grand Bete, La
R: Schottische
M: 4/4
L: 1/8
C: Giles Chabenat
Q: 160
K: Dm
P:Dm drone
DEFG A2A2 | "(Gm/D)"GABG "Dm"A4 | FAGF "(C/D)"EGFE | "(Bb/D)"DEFG "(A/D)"A4 | DEFG A2A2 | "(Gm/D)"GABG "Dm"A4 |
"(C/D)"c2=B2A2G2 | EGFE "Dm"D4 :: A2A2d2d2 | "(A/D)"^cdec "Dm"d4 | "(F/D)"ABcA cBAG |
"Dm"FEFG "(A/D)"A4 | "(F/D)"A2A2d2d2| "(A/D)"^cdec "Dm"d4 | "(F/D)"ABcA cBAG | "(Am)"FGFE "Dm"D4 :|

